svgs/thin/user-doctor-hair.svg

<svg xmlns="http://www.w3.org/2000/svg" viewBox="0 0 448 512"><!--! Font Awesome Pro 6.5.1 by @fontawesome - https://fontawesome.com License - https://fontawesome.com/license (Commercial License) Copyright 2023 Fonticons, Inc. --><path d="M336 128c0-5.4-.4-10.8-1.1-16H312c-22.1 0-43-10.2-56.6-27.5L251 89.9C231.2 114 201.7 128 170.5 128L112 128v16c0 61.9 50.1 112 112 112s112-50.1 112-112V128zM267.2 73.6C277.8 87.7 294.4 96 312 96h19.4c-6.8-22.8-20.6-42.5-39-56.7L265.8 71.8l1.4 1.8zM279 30.4C262.7 21.2 244 16 224 16c-56.4 0-103.1 41.7-110.9 96h57.4c26.4 0 51.4-11.8 68.1-32.3L279 30.4zM96 128C96 57.3 153.3 0 224 0s128 57.3 128 128v16c0 70.7-57.3 128-128 128s-128-57.3-128-128V128zm56 194v46.7c22.7 3.8 40 23.6 40 47.3c0 26.5-21.5 48-48 48s-48-21.5-48-48c0-23.8 17.3-43.5 40-47.3V325.3C66.9 343.5 16 406.4 16 481.2c0 8.2 6.6 14.8 14.8 14.8H417.2c8.2 0 14.8-6.6 14.8-14.8c0-74.8-50.9-137.7-120-155.9v43.4c22.7 3.8 40 23.6 40 47.3v40c0 4.4-3.6 8-8 8H328c-4.4 0-8-3.6-8-8s3.6-8 8-8h8V416c0-17.7-14.3-32-32-32s-32 14.3-32 32v32h8c4.4 0 8 3.6 8 8s-3.6 8-8 8H264c-4.4 0-8-3.6-8-8V416c0-23.8 17.3-43.5 40-47.3V322c-8.2-1.3-16.6-2-25.2-2H177.2c-8.6 0-17 .7-25.2 2zm-40 94a32 32 0 1 0 64 0 32 32 0 1 0 -64 0zM0 481.2C0 383.3 79.3 304 177.2 304h93.6C368.7 304 448 383.3 448 481.2c0 17-13.8 30.8-30.8 30.8H30.8C13.8 512 0 498.2 0 481.2z"/></svg>

<svg xmlns="http://www.w3.org/2000/svg" viewBox="0 0 448 512"><!--! Font Awesome Pro 6.1.1 by @fontawesome - https://fontawesome.com License - https://fontawesome.com/license (Commercial License) Copyright 2022 Fonticons, Inc. --><path d="M96 128C96 57.31 153.3 0 224 0C294.7 0 352 57.31 352 128V144C352 214.7 294.7 272 224 272C153.3 272 96 214.7 96 144V128zM334.9 112H312C289.9 112 269 101.8 255.4 84.49L250.1 89.86C231.2 113.1 201.7 128 170.5 128H112V144C112 205.9 162.1 256 224 256C285.9 256 336 205.9 336 144V128C336 122.6 335.6 117.2 334.9 112L334.9 112zM312 96H331.4C324.6 73.21 310.7 53.46 292.4 39.29L265.8 71.75L267.2 73.6C277.8 87.7 294.4 96 311.1 96H312zM278.1 30.4C262.7 21.23 243.1 16 224 16C167.6 16 120.9 57.72 113.1 112H170.5C196.9 112 221.9 100.2 238.6 79.72L278.1 30.4zM0 481.2C0 383.3 79.33 304 177.2 304H270.8C368.7 304 448 383.3 448 481.2C448 498.2 434.2 512 417.2 512H30.82C13.8 512 .0006 498.2 .0006 481.2H0zM152 368.7C174.7 372.5 192 392.2 192 416C192 442.5 170.5 464 144 464C117.5 464 96 442.5 96 416C96 392.2 113.3 372.5 136 368.7V325.3C66.93 343.5 16 406.4 16 481.2C16 489.4 22.63 496 30.81 496H417.2C425.4 496 432 489.4 432 481.2C432 406.4 381.1 343.5 311.1 325.3V368.7C334.7 372.5 352 392.2 352 416V440C352 442.1 351.2 444.2 349.7 445.7L333.7 461.7C330.5 464.8 325.5 464.8 322.3 461.7C319.2 458.5 319.2 453.5 322.3 450.3L336 436.7V416C336 398.3 321.7 384 304 384C286.3 384 272 398.3 272 416V436.7L285.7 450.3C288.8 453.5 288.8 458.5 285.7 461.7C282.5 464.8 277.5 464.8 274.3 461.7L258.3 445.7C256.8 444.2 256 442.1 256 440V416C256 392.2 273.3 372.5 296 368.7V321.1C287.8 320.7 279.4 320 270.8 320H177.2C168.6 320 160.2 320.7 152 321.1V368.7zM144 448C161.7 448 176 433.7 176 416C176 398.3 161.7 384 144 384C126.3 384 112 398.3 112 416C112 433.7 126.3 448 144 448z"/></svg>
